X:84
T:Bunker Hill
R:reel
D:Dermot Byrne: "Dermot Byrne", 1b
M:C|
L:1/8
K:Bmix
EC~C2 [B,3F3]B,|(3CDE FG G~A2G|FAFE CE~E2|FG{c}AF BcAF|
ECAC ~B,2FB,|(3CDE FG AFGA|BcAF GE~E2|FG{c}AF [F2B2]AF|
ECAC [B,3F3]F|CEFG GAGA|FAFE CE~E2|FG{c}AF BcAF|
ECAC ~B,2FB,|(3CDE FG AFGA|BGAF GEDE|FG{c}AF BcAF||
||EA~A2 cA~A2|E~A2G AFEA|{=F}^F2~B2 d~B2A|FBBc BAFE|
DEFG AFBG|AFBG ~A2GA|BcAF GEDE|FG{c}AF BcAF|
E2~A2 cA~A2|E~A2G AFEB|FB~B2 FBfB|F~B2c BAFE|
DEFG ~AFBG|AFBG ~A2GA|BcAF GBEB|FG{c}AF Bdfe||
||dB~B2 dBfB|dfBd (3fgf ed|ec~c2 ecgc|egce gcfe|
dB~B2 FGAF|BAFG ~A2 (3FGA|BGAF GB,EG|FG{c}AF Bdfe|
dB~B2 dBfB|dfBd (3fgf ed|ec~c2 ecgc|egce gc{g}fe|
dB~B2 FGAF|BAFG ~A2 (3FGA|BcAF GE~E2|FG{c}AF BFAF||
"2nd time:"
ECAC ~B,2FB,|DEFG GAGA|FGFE CE~E2|FG{c}AF BcAF|
ECAC ~B,2FB,|(3CDE FG AFGA|BGAF GE~E2|FG{c}AF {^A}B2=AF|
EC~C2 [B,3F3]B,|(3CDE FG G~A2G|FAEA CAEA|FG{c}Ac BcAF|
ECAC ~B,2FB,|(3CDE FG AFGA|BGAF GE~E2|FG{c}AF BcAF||
||EA~A2 cA~A2|E~A2G AFEA|FB~B2 dB~B2|EFBc BAFE|
DEFG AFBG|AFBG ~A2 (3FGA|BGAF GBEG|FGAF BcAF|
E2~A2 c~A2G|~A3B AFEB|FB~B2 FBfB|F~B2c BAFE|
DEFG AcBG|AcBG ~A2 (3FGA|BGAF GBEG|FGAF Bbfe||
||d~B2c dBfB|dfBd (3fgf ed|ec~c2 ecgc|egce gcfe|
dB~B2 FGAF|BAFG ~A2 (3FGA|BGAF GE~E2|FGAF Bdfe|
d~B2c dBfB|dfBd (3fgf ed|ec~c2 ecgc|egce gcfe|
dB~B2 FBfB|{c}BAFG AFGA|BGAF GE~E2|FGAF BFAF||
"3rd time:"
ECAC [B,3F3]B,|DEFG G~A2G|FGFE CE~E2|FGAF BcAF|
ECAC ~B,2FB,|(3CDE FG AFGA|BGAF GDEG|FGAF BFAF|
EC~C2 [B,3F3]B,|(3CDE FG G~A2G|~F3E CE~E2|FGAc BcAF|
ECAC ~B,2FB,|(3CDE FG AFGA|BcAB GE~E2|FG{c}AF BcAF||
||EA~A2 cA~A2|E~A2G AFEA|FB~B2 dB~B2|EFBc BAFE|
DEFG AFBG|AFBG ~A2 (3FGA|BGAF GEDE|FG{c}AF BcAF|
E2~A2 EAcA|~A2cB AFEA|FB~B2 fB~B2|F~B2c BAFE|
DEFG AFBG|AFBG ~A2 (3FGA|BGAF GBEG|FG{c}AF Bbfe||
||d~B2c dBfB|dfBd (3fgf ed|ec~c2 ecgc|egce gcfe|
dB~B2 FGAF|BAFG ~A2 (3FGA|BGAF GEEG|FG{c}AF Bdfe|
dB~B2 dBfB|dfBd (3fgf ed|ec~c2 ecgc|egce gcfe|
dB~B2 FGAF|BAFG {G}A3c|BzAF GE~E2|FGAF BcAF||
"End tag:"
ECAC [B,4F4]|

